X: 1
T: the Rothesay Rant
C: Beryl S Johnston
R: jig
B: Birmingham Branch RSCDS "Scottish Country Dances" #11
Z: 1997 by John Chambers <jc:trillian.mit.edu>
M: 6/8
L: 1/8
K: G
   D \
| "G"{EF}G2F E2D | "C"E2D E2G | "G"D2B, B,2G | "D7"B,2A, A,2D \
| "G"G2F G2A | "G"B3 G2B | "C"A2G "(D7)"G2E | "G"G3- G2 :|
|: d \
| "G"B2G G2d | "G"B2G G2d | "C"e2d "G"B2G | "D7"A2d d2 d \
| "C" {def}g2f e2d | "Am"e2d c2B | "D7"A2e e2F | "G"G3- G2 :| [K:=g]
K: C
|: G/>G \
| "C"e3 e2e | "G7"d3 d2d | "F"c2d c2A | "C"GE2 E2G \
| "G7"f3 f2f | "C"e3 g2a | "C"g2e c2e | "G7"d3 g2f |
| "C"e3 g2e | "G"d3 g2f | "C"e2g "/B"d2e | "Am"c2B A2G \
| "F"A2c f2a | "F"c'<c'z "G7"b2a | "C"g2e "G7"e2d | "C"c3- c2 :|
